X:1
T:Billy Boy
M:4/4
L:1/4
K:C
 E F| G G G G| c2 E F| G2 G A| G2 E F| G G G G| c3/2 c/2 E F| E D3-|\
 D2| D E| F F F F| F2 G/2G/2 F| E D E F| G2 c A| G2 E G| G F D B,|\
 D4| C2||
